X: 192
T: Tom Thumb
R: reel
M: C|
L: 1/8
Z: 2011 John Chambers <jc:trillian.mit.edu>
N: Kludgy indication of "octave lower" by using w: "lyrics"
B: Abraham Mackintosh "A Collection of Strathspeys, Reels, Jigs &c.", Newcastle, after 1797, p.19
F: http://imslp.info/files/imglnks/usimg/a/a8/IMSLP80796-PMLP164326-Abraham_Mackintosh_coll.pdf
K: A
V: 1
|: C2EA cecA | B2dB GBGE | A2E=G FDCB, | CEcB A2A,2 :|
|: c2cA c2cA | eAec A2Ac | B2BG B2BG | EFED C2A,2 :|
|: ceee e2ee | eagf fedc | defd ecBA | Gged {d}c2{B}A2 :|
|: A2EC A2EC | AB/c/ BA AGFE | EAGF FEDC | D2E2 A,4 :|
V: 2 clef=bass middle=d
|: [a2A2][a2A2] [a2A2][a2A2] | [e2E2][e2E2] [e2E2][e2E2] |\
   [c2C2][c2C2] [d2D2][e2E2] | [a2A2][e2E2] A2A2 :|
w: | | | | ~ ~ ~8 ~8
|: [a2A2][a2A2] [a2A2][a2A2] | [a2A2][a2A2] [a2A2][a2A2] |\
   [e2E2][e2E2] [e2E2][e2E2] | [cC][dD][e2E2] A2A2 :|
w: | | | | ~ ~ ~ ~8 ~8
|: [a2c'2e'2][e2g2b2e'2] [a2c'2e'2][e2g2b2e'2] | [a2c'2]d'2 a3=g | f2d2 c2d2 | e2E2 a2A2 :|
|: a2ec a2ec | A2d2 e2d2 | c2d2 dcBA | d2e2 A4 :|

%%sep 2 1 500

